X: 1002
T: Drill: II Broken Thirds
C: Grossi
M: 4/4
L: 1/4
%%staves (S1V1 S1V2) | (S2V1 S2V2)
V: S1V1 clef=treble
V: S1V2
V: S2V1 clef=bass
V: S2V2
K: C
[V: S1V1] [Q:1/4=80] C E D F | E G F A | G B A c | B A G F | E D C2 |]
[V: S1V2] A, C B, D | C E D F | E G F A | G F E D | C B, A,2 |]
[V: S2V1] F, A, G, B, | A, C B, D | C E D F | E D C B, | A, G, F,2 |]
[V: S2V2] D, F, E, G, | F, A, G, B, | A, C B, D | C B, A, G, | F, E, D,2 |]

